dist/img/svg/tg.svg

<svg width="24" height="24" viewBox="0 0 24 24" fill="none" xmlns="http://www.w3.org/2000/svg">
<path fill-rule="evenodd" clip-rule="evenodd" d="M12 24C18.6274 24 24 18.6274 24 12C24 5.37258 18.6274 0 12 0C5.37258 0 0 5.37258 0 12C0 18.6274 5.37258 24 12 24ZM11.8754 8.66526C10.7111 9.15972 8.38412 10.1831 4.89446 11.7355C4.3278 11.9656 4.03095 12.1906 4.00393 12.4107C3.95826 12.7827 4.41446 12.9292 5.0357 13.1286C5.1202 13.1557 5.20775 13.1838 5.29752 13.2136C5.90871 13.4165 6.73088 13.6538 7.15829 13.6632C7.54599 13.6718 7.97871 13.5086 8.45644 13.1736C11.7169 10.9264 13.4 9.7906 13.5057 9.76611C13.5802 9.74884 13.6835 9.72712 13.7535 9.79064C13.8235 9.85416 13.8166 9.97445 13.8092 10.0067C13.764 10.2034 11.9733 11.9033 11.0465 12.783C10.7576 13.0572 10.5527 13.2517 10.5108 13.2962C10.417 13.3957 10.3213 13.4898 10.2294 13.5803C9.6616 14.1392 9.2358 14.5583 10.253 15.2427C10.7418 15.5716 11.133 15.8436 11.5232 16.1149C11.9494 16.4112 12.3744 16.7068 12.9244 17.0749C13.0645 17.1687 13.1984 17.2661 13.3287 17.361C13.8247 17.722 14.2702 18.0463 14.8207 17.9946C15.1406 17.9645 15.471 17.6574 15.6388 16.7415C16.0354 14.577 16.8149 9.887 16.995 7.95438C17.0108 7.78505 16.9909 7.56835 16.975 7.47323C16.959 7.3781 16.9257 7.24257 16.8046 7.14223C16.6612 7.02341 16.4398 6.99835 16.3408 7.00013C15.8905 7.00823 15.1998 7.25347 11.8754 8.66526Z" fill="white"/>
</svg>

<svg width="24" height="24" viewBox="0 0 24 24" fill="none" xmlns="http://www.w3.org/2000/svg"><path fill-rule="evenodd" clip-rule="evenodd" d="M12 24c6.627 0 12-5.373 12-12S18.627 0 12 0 0 5.373 0 12s5.373 12 12 12zm-.125-15.335a584.13 584.13 0 00-6.98 3.07c-.567.23-.864.456-.891.676-.046.372.41.518 1.032.718l.262.085c.61.202 1.433.44 1.86.45.388.008.82-.155 1.298-.49 3.26-2.248 4.944-3.383 5.05-3.408.074-.017.178-.039.248.025.07.063.063.183.055.216-.045.196-1.836 1.896-2.762 2.776-.29.274-.494.469-.536.513-.094.1-.19.194-.282.284-.567.56-.993.978.024 1.663.489.329.88.6 1.27.872.426.296.851.592 1.401.96.14.094.274.191.405.286.496.361.941.685 1.492.634.32-.03.65-.338.818-1.254.396-2.164 1.176-6.854 1.356-8.787a2.202 2.202 0 00-.02-.48.52.52 0 00-.17-.332c-.144-.119-.365-.144-.464-.142-.45.008-1.141.253-4.466 1.665z" fill="#fff"/></svg> 14.1392 9.2358 14.5583 10.253 15.2427C10.7418 15.5716 11.133 15.8436 11.5232 16.1149C11.9494 16.4112 12.3744 16.7068 12.9244 17.0749C13.0645 17.1687 13.1984 17.2661 13.3287 17.361C13.8247 17.722 14.2702 18.0463 14.8207 17.9946C15.1406 17.9645 15.471 17.6574 15.6388 16.7415C16.0354 14.577 16.8149 9.887 16.995 7.95438C17.0108 7.78505 16.9909 7.56835 16.975 7.47323C16.959 7.3781 16.9257 7.24257 16.8046 7.14223C16.6612 7.02341 16.4398 6.99835 16.3408 7.00013C15.8905 7.00823 15.1998 7.25347 11.8754 8.66526Z" fill="white"/>
</svg>
